X:1
T:Title
%%score { 1 | ( 2 3 ) }
L:1/8
M:3/4
K:Bb
V:1 treble nm="Grand Piano"
V:2 bass 
V:3 bass 
V:1
 z2 z[Q:1/4=82] [DF] [EG][DF] | [Fd]3 [Fd] c/B/G | [DF]3 [DF] [EG]F | c4 d2 | c3 [DF] [EG][DF] | %5
 [Fd]3 [Fd] c/B/G | [DF]4 F2 | c3 B dc |[M:3/8] [DB]3 | [DB][Fd]/[Ec]/[DB] | %10
[M:3/4] [Fd]3 [Fd] c/B/G | [DF]4 [DF]2 | [Fd]3 [Fd] .[=Ed][B,EG] |[M:3/8] [Ec]3 | [DF][EG][DF] | %15
[M:3/4] [Fd]3 [Fd] c/B/G | [DF]4 F2 | c3 B d>c |[M:3/8] [DB]3 |] %19
V:2
 z2 z [B,,B,] [B,,B,][B,,B,] | [B,,B,]3 [B,,B,] [E,G,E][E,B,E] | [B,,B,]3 [B,,B,] [B,,B,][D,B,] | %3
 [F,A,F]4 [F,B,F]2 | [F,A,E]3 [B,,B,] [B,,B,][B,,B,] | [B,,B,]3 [B,,B,] [E,G,E][E,B,E] | %6
 [B,,B,]4 [D,B,]2 | [F,A,E]3 [F,B,D] [F,B,F][F,E] |[M:3/8] [B,,F,]3 | [B,,F,B,][B,,B,][B,,F,] | %10
[M:3/4] [B,,B,]3 [B,,B,] [E,G,E][E,B,E] | [B,,B,]4 [B,,B,]2 | %12
 [B,,B,]3 [B,,B,] z/[K:treble] c/[K:bass]C, |[M:3/8] [F,A,]3 | [B,,B,][B,,B,][B,,B,] | %15
[M:3/4] [B,,B,]3 [B,,B,] [E,G,E][E,B,E] | [B,,B,]4 [D,B,]2 | [F,A,E]3 [F,B,D] [F,B,F]>[F,E] | %18
[M:3/8] [B,,F,]3 |] %19
V:3
 x6 | x6 | x6 | x6 | x6 | x6 | x6 | x6 |[M:3/8] x3 | x3 |[M:3/4] x6 | x6 | %12
 z2 z2 .[C,B,]2[K:treble][K:bass] |[M:3/8] x3 | x3 |[M:3/4] x6 | x6 | x6 |[M:3/8] x3 |] %19

